!!!OTL: O SUESSE HIMMELSLUST
!!!ARE: Europa, Mitteleuropa, Deutschland
!!!SCT: B0257
!!!YEM: Copyright 1995, estate of Helmut Schaffrath.
**kern
*ICvox
*Ivox
*M3/4
*k[f#]
*G:
=1
{4b
4a
4g
=2
4f#
4e
4e}
=3
{4cc
4b
4a
=4
4g
4f#
4f#}
=5
{4ee
4dd
4dd
=6
4.gg
8dd
4dd}
=7
{4ee
4dd
4f#
=8
4g
2r}
=9
{4ee-
4dd
4cc
=10
4cc
4b-
4b-}
=11
{4cc
4b-
4a-
=12
4a-
4g
4g}
=13
{4b-
4g
4g
=14
4.dd
8b
4b}
=15
{4ee
4dd
4f#
=16
4g
2r}
=17
{4g
4g
4a
=18
4.b
8cc
4b}
=19
{4b
4.a
8b
=20
4a
4g
4g}
=21
{4.dd
8b
4b
=22
4.b
8g
4g}
=23
{4f#
4d#
4f#
=24
2b
4r}
=25
{4cc
4.dd
8cc
=26
4.b
8g
4b}
=27
{4ee
4cc
4ee
=28
4dd
4cc
4b}
=29
{4dd
4cc
4a
=30
4.ee
8dd
4b}
=31
{4dd
4cc
4f#
=32
4g
2r}
==
!!!AGN: Stimmungs - Lied, Sehnsucht
!!!ONB: ESAC (Essen Associative Code) Database: BOEHME
!!!AMT: simple triple
!!!AIN: vox
!!!EED: Helmut Schaffrath
!!!EEV: 1.0
*-
